svgs/regular/candy-cane.svg

<svg xmlns="http://www.w3.org/2000/svg" viewBox="0 0 512 512"><!--! Font Awesome Pro 6.0.0-alpha3 by @fontawesome - https://fontawesome.com License - https://fontawesome.com/license (Commercial License) --><path d="M497.1 95.38C469.2 36.62 411.4 0 346.4 0c-29.88 0-59.25 8.125-85 23.5L235.7 38.88c-21.88 13-29 41.37-16 63.13L250.6 153.5c12.13 20.25 39.88 29.75 63.13 15.88l25.75-15.37c16-9.625 30.13 14.62 14.38 24L22.43 375c-10.63 6.25-18 16.38-21 28.25c-3 12-1.25 24.38 5.125 34.88l30.75 51.5C45.68 503.4 60.68 512 76.8 512c8.375 0 16.38-2.25 23.63-6.5L426.2 311.9C501.8 266.6 533.1 171.5 497.1 95.38zM212.3 383.2L155.9 351.5l64.25-38.25l56.38 31.88L212.3 383.2zM324.2 316.8L267.7 285l59.5-35.25l56.25 31.62L324.2 316.8zM395.1 128.1c-3.25-4.125-6.875-7.875-10.88-10.88v-63c30 10 55.25 31.63 69.5 61.75c1.875 3.875 2.875 8 4.25 12.12H395.1zM336.1 48.75v56.62c-15.88 2.875-19.38 6.25-45.13 22l-28.88-48.25C289.7 62.62 304.7 51.5 336.1 48.75zM108.3 379.8l56.5 31.87L77.68 463.5l-29-48.25L108.3 379.8zM426.6 250.6l-51.88-29.25C392.7 210.8 403.9 198.2 407.7 176h55.38C459.9 203.5 447.2 229.9 426.6 250.6z"/></svg>

<svg xmlns="http://www.w3.org/2000/svg" viewBox="0 0 512 512"><path d="M497.1 95.4C469.2 36.6 411.5 0 346.5 0c-29.9 0-59.2 8.1-85 23.5l-25.8 15.4c-21.8 13-28.9 41.3-15.9 63.1l30.8 51.5c12.1 20.2 39.9 29.7 63.1 15.9l25.8-15.4c16-9.6 30.1 14.6 14.4 24L22.5 375c-10.6 6.3-18 16.4-21 28.3s-1.2 24.3 5.1 34.8l30.8 51.5c8.3 13.8 23.4 22.4 39.5 22.4 8.3 0 16.4-2.3 23.6-6.5l325.7-193.6c75.7-45.3 106.9-140.4 70.9-216.5zM212.4 383.3L156 351.5l64.2-38.2 56.4 31.8-64.2 38.2zm111.8-66.5L267.8 285l59.4-35.3 56.3 31.7-59.3 35.4zM395.1 128c-3.2-4.1-6.8-7.7-10.9-10.8V54.3c30.1 10 55.3 31.6 69.5 61.7 1.9 3.9 2.9 8 4.3 12.1h-62.9zm-59-79.3v56.7c-15.9 2.8-19.3 6.2-45.1 22l-28.9-48.3c27.6-16.5 42.6-27.6 74-30.4zM108.4 379.8l56.5 31.8-87.2 51.9-28.9-48.3 59.6-35.4zm318.2-129.2l-51.8-29.2c17.9-10.6 29.2-23.2 32.9-45.4h55.4c-3.1 27.5-15.9 53.9-36.5 74.6z"/></svg>
